X: 1
T: Caller Herrin'
R: reel
O: Arr: Peter White
B: Hugh Foss "DANCES to SONG TUNES" 1966 (music: Peter White)
Z: 2010 John Chambers <jc:trillian.mit.edu>
M: 2/4
L: 1/8
K: G
G |:\
"G"G>G GG | "D"F2 "G"G"D"A | "G"BE "A7"A>G | "D"FD "D7"EF |
"G"G>G GG | "D"F2 "G"G"AmD"A | "G"B>c "D7"A>B | "G"G3 !fine!y|]
g |\
"D7"fe dc | "G"BA Gg | "D7"fe dc | "G"BA Gg |
"D7"fe dc | "G"B>B "C"c"G"d | "C"eE "A"A>G | "D"FD "D7"EF :|
